X:133
T:Kamjensl Freilach
O:klezmer
C:Maarten Sijbers
M:4/4
L:1/8
Q:1/4=144
K:Bb
V:1
"Gm" (G4 G)B AG |d2 d2 d2 d2 |(G4 G)B AG |"Cm" e2 e2 e2 e2 |
"D7" (^f4 ^f)^f ^fg |a2 a2 a2 ab |"F" c'b ag "D7" ^fe dc |"Gm" g2 g2 g2 g2 :| |:
"Eb" (g4 g)f eg |"Bb" f2 f2 "G7" g2 f2 |"Cm" ee2 d"F" e f/g/f e|"Bb" B2 d2 f2 d2 |
"F" cc2 de f/e/d c|"Bb" B2 d2 fb fd |"F" cc2 de f/e/d c|"Bb" B f"F" =e e"Bb" d4 :| |:
"Cm" (g4 g)g gg |"D7" ^f2 ^f2 ^f2 ^f2 |"Cm" (g4 g)g "F" fe |"Bb" d2 d2 d2 d2 |
f3 f"Eb" g g"F" f e|"Bb" d2 g2 "D7" d2 c2 |"Gm" Bd gd "F" cd/e/ "D7" dc |"Gm" B8 :|
V:2          %2e stem
|:G4 GB AG |B2 B2 B2 B2 |(G4 G)B AG |c2 c2 c2 c2 |
(d4) d)d de |^f2 ^f2 ^f2 ^fg |ag ^fe dc BA |B2 B2 B2 B2 :| |:
(e4 e)d ce |d2 d2 e2 d2 |cc2 Bc d/e/d c|F2 B2 d2 B2 |
AA2 Bc d/c/B A|F2 B2 dd fd |AA2 Bc d/c/B A|B d^c cB4 :| |:
(e4 e)e ee |d2 d2 d2 d2 |(e4 e)e dc |B2 B2 B2 B2 |
d3 de ed c|B2 B2 B2 A2 |GB BB AB/c/ BA |G8 :|





